X:72
T:The MacKenzie Reunion
R:jig
C:Paul S. Cranford
O:Cape Breton Island
S:http://www.cranfordpub.com
D:currently unrecorded
B:currently unpublished in book form
Z:psc
H:                                                        copyrights Cranford Publications, SOCAN
L:1/8
Q:300
M:6/8
K:G
D|G2 B AGE|DGE DB,G,|A,AB c2 e|dGB AGE|
G2 B AGE|DGE DB,G,|A,DF Ace|dFA G2:|
|:B|c2 d edc|Bge dBG|ADF AdB|[1cag fed|
c2 d edc|Bge dBG|ADF Ace|def g2:|
[2ced cBA|G2 B AGE|DGE DB,G,|A,DF Ace|dFA G2|]
